src/images/lists.svg

<svg width="28" height="28" viewBox="0 0 28 28" fill="none" xmlns="http://www.w3.org/2000/svg">
<mask id="mask0_1175_127" style="mask-type:alpha" maskUnits="userSpaceOnUse" x="0" y="0" width="28" height="28">
<rect width="28" height="28" fill="#C4C4C4"/>
</mask>
<g mask="url(#mask0_1175_127)">
<path d="M23.0418 25.6666H4.9585C3.51183 25.6666 2.3335 24.4883 2.3335 23.0416V4.95831C2.3335 3.51165 3.51183 2.33331 4.9585 2.33331H23.0418C24.4885 2.33331 25.6668 3.51165 25.6668 4.95831V23.0416C25.6668 24.4883 24.4885 25.6666 23.0418 25.6666ZM4.9585 4.08331C4.4755 4.08331 4.0835 4.47648 4.0835 4.95831V23.0416C4.0835 23.5235 4.4755 23.9166 4.9585 23.9166H23.0418C23.5248 23.9166 23.9168 23.5235 23.9168 23.0416V4.95831C23.9168 4.47648 23.5248 4.08331 23.0418 4.08331H4.9585Z" fill="black"/>
<path d="M19.5417 9.91669H7.875C7.392 9.91669 7 9.52352 7 9.04169C7 8.55985 7.392 8.16669 7.875 8.16669H19.5417C20.0247 8.16669 20.4167 8.55752 20.4167 9.04169C20.4167 9.52585 20.0247 9.91669 19.5417 9.91669ZM19.5417 14.7117H7.875C7.392 14.7117 7 14.3197 7 13.8367C7 13.3537 7.392 12.9617 7.875 12.9617H19.5417C20.0247 12.9617 20.4167 13.3537 20.4167 13.8367C20.4167 14.3197 20.0247 14.7117 19.5417 14.7117ZM13.7083 19.5067H7.875C7.392 19.5067 7 19.1159 7 18.6317C7 18.1475 7.392 17.7567 7.875 17.7567H13.7083C14.1913 17.7567 14.5833 18.1499 14.5833 18.6317C14.5833 19.1135 14.1913 19.5067 13.7083 19.5067Z" fill="black"/>
</g>
</svg>

<svg width="28" height="28" fill="none" xmlns="http://www.w3.org/2000/svg"><mask id="a" style="mask-type:alpha" maskUnits="userSpaceOnUse" x="0" y="0" width="28" height="28"><path fill="#C4C4C4" d="M0 0h28v28H0z"/></mask><g mask="url(#a)" fill="#000"><path d="M23.042 25.667H4.958a2.629 2.629 0 0 1-2.625-2.625V4.958a2.629 2.629 0 0 1 2.625-2.625h18.084a2.629 2.629 0 0 1 2.625 2.625v18.084a2.629 2.629 0 0 1-2.625 2.625ZM4.958 4.083a.876.876 0 0 0-.875.875v18.084c0 .481.393.875.875.875h18.084a.876.876 0 0 0 .875-.875V4.958a.876.876 0 0 0-.875-.875H4.958Z"/><path d="M19.542 9.917H7.875a.876.876 0 0 1 0-1.75h11.667a.875.875 0 1 1 0 1.75Zm0 4.795H7.875a.875.875 0 0 1 0-1.75h11.667a.875.875 0 0 1 0 1.75Zm-5.834 4.795H7.875a.875.875 0 1 1 0-1.75h5.833a.876.876 0 0 1 0 1.75Z"/></g></svg>
